resources/svg/roller.svg

<svg xmlns="http://www.w3.org/2000/svg" viewBox="0 0 15 15" fill="currentColor"><path d="M0 1.5C0 0.671573 0.671573 0 1.5 0H11.5C12.3284 0 13 0.671573 13 1.5V2.05001C14.1411 2.28164 15 3.29052 15 4.5V5.9914C15 7.1076 14.2601 8.08856 13.1868 8.39521L8.36264 9.77354C8.14799 9.83487 8 10.0311 8 10.2543V11H9.5C9.77614 11 10 11.2239 10 11.5V14.5C10 14.7761 9.77614 15 9.5 15H5.5C5.22386 15 5 14.7761 5 14.5V11.5C5 11.2239 5.22386 11 5.5 11H7V10.2543C7 9.58458 7.44397 8.996 8.08792 8.81202L12.9121 7.43368C13.556 7.2497 14 6.66112 14 5.9914V4.5C14 3.84689 13.5826 3.29127 13 3.08535V3.5C13 4.32843 12.3284 5 11.5 5H1.5C0.671572 5 0 4.32843 0 3.5V1.5Z" fill="black"/></svg>

<svg xmlns="http://www.w3.org/2000/svg" viewBox="0 0 15 15" fill="currentColor"><path d="M0 1.5A1.5 1.5 0 011.5 0h10A1.5 1.5 0 0113 1.5v.55a2.5 2.5 0 012 2.45v1.491a2.5 2.5 0 01-1.813 2.404L8.363 9.774a.5.5 0 00-.363.48V11h1.5a.5.5 0 01.5.5v3a.5.5 0 01-.5.5h-4a.5.5 0 01-.5-.5v-3a.5.5 0 01.5-.5H7v-.746a1.5 1.5 0 011.088-1.442l4.824-1.378A1.5 1.5 0 0014 5.99V4.5a1.5 1.5 0 00-1-1.415V3.5A1.5 1.5 0 0111.5 5h-10A1.5 1.5 0 010 3.5v-2z" fill="currentColor"/></svg>
